!!!COA:	Josquin des Prez
!!!CDT:	~1450-1521/08/27
!!!COA2: Bauldeweyn
!!!COA3: Mouton
!!!OPR:	Missa Da pacem
!!!ONM:	3
!!!OTL:	Credo
!!!AGN:	Mass; Credo
!!!SCT:	NJE 3.2
!!!SCA:	New Josquin Edition 3.2
!!!voices: 4
!!!voices-OPR:	4
**kern	**kern	**kern	**kern
*staff4	*staff3	*staff2	*staff1
*Ivox	*Ivox	*Ivox	*Ivox
*I"Bassus	*I"Tenor	*I"Altus	*I"Superius
*I'B	*I'T	*I'A	*I'S
*clefF4	*clefGv2	*clefGv2	*clefG2
*>[A,B,C,D,E]	*>[A,B,C,D,E]	*>[A,B,C,D,E]	*>[A,B,C,D,E]
*>Credo[A]	*>Credo[A]	*>Credo[A]	*>Credo[A]
*>Et_incarnatus_est[B]	*>Et_incarnatus_est[B]	*>Et_incarnatus_est[B]	*>Et_incarnatus_est[B]
*>Crucifixus[C]	*>Crucifixus[C]	*>Crucifixus[C]	*>Crucifixus[C]
*>Et_resurrexit[D]	*>Et_resurrexit[D]	*>Et_resurrexit[D]	*>Et_resurrexit[D]
*>Et_iterum[E]	*>Et_iterum[E]	*>Et_iterum[E]	*>Et_iterum[E]
*>A	*>A	*>A	*>A
*k[b-]	*k[b-]	*k[b-]	*k[b-]
*M3/1	*M3/1	*M3/1	*M3/1
*met(O)	*met(O)	*met(O)	*met(O)
=1-	=1-	=1-	=1-
!!section: Patrem
!!!OMD: Patrem
0.r	0.r	0G	0.r
.	.	1F	.
=2	=2	=2	=2
0.r	0.r	2.G/	0g
.	.	4A/	.
.	.	2B-\	.
.	.	2G/	.
.	.	1A	1f
=3	=3	=3	=3
0G	0.r	4G/	2.g/
.	.	4A/	.
.	.	4B-\	.
.	.	4c\	4a/
.	.	2d\	2.b-\
.	.	2e\	.
.	.	.	4g/
1F	.	2f\	1a
.	.	[2d\	.
=4	=4	=4	=4
2.G\	0.r	2d\]	1g
.	.	2e\	.
4A\	.	.	.
2B-\	.	2d\	1r
2G\	.	1g	.
1A	.	.	2r
.	.	2f#i\	2cc\
=5	=5	=5	=5
0G	0.r	2g\	2b-\
.	.	2g\	2g/
.	.	2d\	2b-\
.	.	2d\	2b-\
1r	.	2f\	2a/
.	.	2f\	2a/
=6	=6	=6	=6
2r	0.r	2e\	1g
2G\	.	2e\	.
2F\	.	2d\	2r
2D\	.	2d\	2a/
2F\	.	2c\	2a/
2F\	.	2A/	2a/
=7	=7	=7	=7
2E-i\	0.r	2c\	2g/
2E-i\	.	2c\	2e-i/
2D\	.	2B-\	2f/
2BB-/	.	2B-\	1g
2C/	.	2A/	.
2D\	.	2A/	2f#i/
=8	=8	=8	=8
1GG	[0.G	4G/	1g
.	.	4A/	.
.	.	4B-\	.
.	.	4c\	.
2r	.	2d\	2g/
2C/	.	1e	2g/
2C/	.	.	2g/
2C/	.	2e\	4g/
.	.	.	4a/
=9	=9	=9	=9
2BB-/	0.G_	2d\	4b-\
.	.	.	4cc\
2BB-/	.	2g\	2.dd\
2C/	.	4f\	.
.	.	4e\	4cc\
2C/	.	4d\	1cc
.	.	4c\	.
1GG	.	1d	.
.	.	.	2bni\
=10	=10	=10	=10
1C	0.G]	2.c\	1cc
.	.	4d\	.
2C/	.	4e\	2r
.	.	4f\	.
2C/	.	1g	2cc\
2E-\	.	.	2b-\
2E-i\	.	2c\	2g/
=11	=11	=11	=11
2D\	[0.F	1.f	2a/
2.BB-/	.	.	2.dd\
4C/	.	.	4cc\
4D\	.	2d\	1b-
4E\	.	.	.
1F	.	1c	.
.	.	.	2a/
=12	=12	=12	=12
1BB-	0.F_	0B-	1b-
2BB-/	.	.	2r
2BB-/	.	.	1b-
2D\	.	1r	.
4C/	.	.	2a/
4BB-/	.	.	.
=13	=13	=13	=13
1BB-	0.F]	1B-	2.b-\
.	.	.	8a/L
.	.	.	8g/J
1BB-	.	2B-\	1f
.	.	2B-\	.
2BB-/	.	2.d\	2b-\
2BB-/	.	.	2b-\
.	.	8c\L	.
.	.	8B-\J	.
=14	=14	=14	=14
1E-i	[0.G	2B-\	1b-
.	.	2B-\	.
2E-i\	.	2e-i\	1g
2E-i\	.	2e-i\	.
1C	.	2e-i\	1cc
.	.	4d\	.
.	.	4c\	.
=15	=15	=15	=15
2r	0.G_	2d\	2b-\
1C	.	2c\	1cc
.	.	1d	.
2BB-/	.	.	2.g/
2C/	.	1c	.
.	.	.	4f/
2C/	.	.	4g/
.	.	.	4a/
=16	=16	=16	=16
2GG/	0.G]	2B-\	2b-\
1C	.	2c\	2.g/
.	.	2c\	.
.	.	.	4f/
2BB-/	.	1G	4e-i/
.	.	.	4d/
2C/	.	.	2e-i/
2C/	.	4F/	2e-i/
.	.	4E/	.
=17	=17	=17	=17
1BB-	[0.B-	2F/	1d
.	.	1G	.
2E-\	.	.	1r
2D\	.	2F/	.
2E-i\	.	2G/	1r
2D\	.	[2F/	.
=18	=18	=18	=18
2BB-/	0.B-]	2F/]	1r
1E-i	.	1G	.
.	.	.	1r
4D\	.	4F/	.
4C/	.	4E/	.
1D	.	1F	1d
=19	=19	=19	=19
1.C	[0.c	1G	2e/
.	.	.	2e/
.	.	1A	4c/
.	.	.	4d/
2D\	.	.	4e/
.	.	.	4f/
2E\	.	2G/	2g/
2F\	.	2F/	2a/
=20	=20	=20	=20
2E\	0.c]	1G	2g/
2.C/	.	.	2.cc\
.	.	1g	.
4D\	.	.	4b-\
2E\	.	.	1b-
1F	.	1f	.
.	.	.	2a/
=21	=21	=21	=21
0G	0B-	2d\	1b-
.	.	2.e-i\	.
.	.	.	2r
.	.	4d\	.
.	.	1d	2g/
1E-i	1r	.	2g/
.	.	2c\	2g/
=22	=22	=22	=22
1D	0.r	1d	2f/
.	.	.	2d/
2D\	.	1A	2f/
2D\	.	.	2f/
2C/	.	2A/	2e/
2AA/	.	2A/	4c/
.	.	.	4d/
=23	=23	=23	=23
2C/	0.r	2G/	4e/
.	.	.	4f/
2C/	.	2E/	2.g/
2BB-/	.	2G/	.
.	.	.	4f/
2GG/	.	2G/	2.e/
[1AA	.	1F	.
.	.	.	4d/
.	.	.	[2d/
=24	=24	=24	=24
1AA]	0.A	1E	2d/]
.	.	.	2c/
2D\	.	2F/	1d
4C/	.	1G	.
4BB-/	.	.	.
1AA	.	.	1c
.	.	2F#i/	.
=25	=25	=25	=25
2GG/	0.B-	0G	1r
1G	.	.	.
.	.	.	2r
2G\	.	.	1g
2E\	.	2r	.
2E\	.	[2g\	2g/
=26	=26	=26	=26
1C	0.c	2g\]	2e/
.	.	2g\	2e/
2.C/	.	2e\	4c/
.	.	.	4d/
.	.	2e\	4e/
4D\	.	.	4f/
2E\	.	1c	2g/
2F\	.	.	2a/
=27	=27	=27	=27
2BB-/	0.B-	2d\	2.b-\
1E-i	.	4G/	.
.	.	4A/	4a/
.	.	4B-\	2g/
.	.	4c\	.
4D\	.	4d\	4f/
4C/	.	4e\	4e/
1BB-	.	2.f\	1d
.	.	8e\L	.
.	.	8d\J	.
=28	=28	=28	=28
2C/	0.A	2c\	2e/
1D	.	2.F/	1f
.	.	4G/	.
4C/	.	4A/	4e/
4BB-/	.	4B-\	4d/
2AA/	.	4c\	2.c/
.	.	4d\	.
[2C/	.	4e\	.
.	.	4f\	4d/
=29	=29	=29	=29
4C/]	2.G/	2.g\	4e/
4D\	.	.	4f/
4E\	.	.	2.g/
4F\	4A/	4f\	.
2.G\	4B-\	1d	.
.	4c\	.	4f/
.	2.d\	.	2.d/
4F\	.	.	.
2.D\	.	2.f\	.
.	4c\	.	4e/
.	[2A/	.	4f/
4E\	.	4e\	4g/
=30	=30	=30	=30
2.F\	4A/]	2c\	2.a/
.	4B-\	.	.
.	2.c\	2.c\	.
4E\	.	.	4g/
2.C/	.	.	2.e/
.	4B-\	4d\	.
.	2.G/	2.e-i\	.
4D\	.	.	4f/
2.E-i\	.	.	2.g/
.	4A/	4d\	.
.	[2B-\	4B-\	.
4D\	.	4c\	4a/
=31	=31	=31	=31
4BB-/	4B-\]	4d\	2b-\
4C/	4A/	4e-i\	.
2D\	2F/	1d	2.a/
1E-i	1G	.	.
.	.	.	4g/
.	.	2c\	1g
1D	1A	1d	.
.	.	.	2f#i/
=32	=32	=32	=32
0GG	0G	2r	0.g
.	.	2d\	.
.	.	2d\	.
.	.	2d\	.
2r	1r	2c\	.
2G\	.	[2d\	.
=33	=33	=33	=33
2G\	0.r	2d\]	0.r
2G\	.	4c\	.
.	.	4B-\	.
2F\	.	2A/	.
1G	.	1B-	.
4F\	.	4A/	.
4E\	.	4G/	.
=34	=34	=34	=34
2D\	0.r	4F/	0.r
.	.	4G/	.
2F\	.	4A/	.
.	.	4B-\	.
4E-i\	.	4c\	.
4D\	.	4B-\	.
4C/	.	1B-	.
4BB-/	.	.	.
1C	.	.	.
.	.	2A/	.
=35	=35	=35	=35
1BB-	0B-	1B-	2r
.	.	.	2g/
1r	.	1G	2g/
.	.	.	2g/
1r	1B-	1r	2f/
.	.	.	[2g/
=36	=36	=36	=36
0.r	1.B-	0.r	2g/]
.	.	.	4f/
.	.	.	4e/
.	.	.	2d/
.	2A/	.	2f/
.	2G/	.	2g/
.	2F/	.	[2a/
=37	=37	=37	=37
0.r	1G	0.r	4a/]
.	.	.	4g/
.	.	.	1g
.	0A	.	.
.	.	.	4f#i/
.	.	.	4e/
.	.	.	1f#i
=38	=38	=38	=38
2r	0G	2r	0g
2C/	.	2e-i\	.
2C/	.	2e-i\	.
2C/	.	2e-i\	.
2BB-/	1r	2d\	1r
[2C/	.	[2e-i\	.
=39	=39	=39	=39
2C/]	0.r	2e-\]	0.r
4BB-/	.	4d\	.
4AA/	.	4c\	.
2GG/	.	2.B-\	.
1G	.	.	.
.	.	4c\	.
.	.	4d\	.
.	.	4e-i\	.
4F\	.	[2d\	.
4E\	.	.	.
=40	=40	=40	=40
4F\	0.r	4d\]	0.r
4E\	.	4c\	.
4D\	.	1c	.
4C/	.	.	.
1D	.	.	.
.	.	2Bni\	.
1C	.	1c	.
=41	=41	=41	=41
1BB-	1B-	1F	1d
1r	2B-\	1r	2d/
.	2c\	.	2e/
1r	2.d\	1r	2.f/
.	4c\	.	4e/
=42	=42	=42	=42
0.r	2d\	0.r	2f/
.	2.e\	.	2.g/
.	4d\	.	4f/
.	1d	.	4e/
.	.	.	4d/
.	.	.	1e
.	2c#i\	.	.
=43	=43	=43	=43
1BB-	1d	1F	1d
2BB-/	1r	2F/	1r
2C/	.	2E/	.
1D	1r	2F/	1r
.	.	2A/	.
=44	=44	=44	=44
2D\	0.r	2B-\	0.r
2.E-i\	.	2.c\	.
4D\	.	4B-\	.
4C/	.	1B-	.
4BB-/	.	.	.
1C	.	.	.
.	.	2A/	.
=45	=45	=45	=45
1BB-	1d	1B-	2r
.	.	.	1f
1BB-	2d\	1f	.
.	2d\	.	2g/
2F\	2c\	2f\	2a/
2F\	2A/	2d\	2a/
=46	=46	=46	=46
2G\	2B-\	2e\	2g/
2F\	2c\	2f\	2.cc\
2D\	2d\	2f\	.
.	.	.	4b-\
2G\	2B-\	2e\	1b-
1F	1c	2.f\	.
.	.	.	2a/
.	.	4e\	.
=47	=47	=47	=47
2r	1B-	2d\	1b-
1E-i	.	2.G/	.
.	2r	.	2r
.	.	4A/	.
2E-i\	1.B-	4B-\	2g/
.	.	4c\	.
2D\	.	4d\	2f/
.	.	4e\	.
2BB-/	.	[2f\	2d/
=48	=48	=48	=48
2C/	2A/	4f\]	2e/
.	.	4e\	.
2D\	2F/	1d	2.a/
1E-i	1G	.	.
.	.	.	4g/
.	.	2c\	1g
1D	1A	1d	.
.	.	.	2f/
=49	=49	=49	=49
1GG	2G/	1B-	2e/
.	1d	.	2d/
2r	.	1G	2.g/
1G	2c\	.	.
.	.	.	4f/
.	2B-\	1d	4d/
.	.	.	4e/
2F\	2A/	.	2f/
=50	=50	=50	=50
2E\	2G/	2e\	2g/
2D\	2F/	2f\	2.a/
2C/	1G	2e\	.
.	.	.	4g/
2BB-/	.	2.d\	1g
2C/	1A	.	.
.	.	4c\	.
2D\	.	2A/	2f/
=51	=51	=51	=51
1GG	2r	1B-	2e/
.	1d	.	2d/
2r	.	1G	2.g/
1G	2c\	.	.
.	.	.	4f/
.	2B-\	2r	4d/
.	.	.	4e/
2F\	2A/	2d\	2f/
=52	=52	=52	=52
2E\	2G/	2e\	2g/
2D\	2F/	2f\	2.a/
2C/	1G	2e\	.
.	.	.	4g/
2BB-/	.	1d	1g
2C/	1A	.	.
2D\	.	2A/	2f#i/
=53	=53	=53	=53
0.GGl	0.Gl	0.B-l	0.gl
!!LO:LB:i:g=z
=54||	=54||	=54||	=54||
!!section: Et incarnatus est
!!!OMD: Et incarnatus est
*>B	*>B	*>B	*>B
*M2/1	*M2/1	*M2/1	*M2/1
*met(C|)	*met(C|)	*met(C|)	*met(C|)
0GG	0G	0d	0g
=55	=55	=55	=55
1BB-	1G	1d	1d
1C	1G	1c	1e
=56	=56	=56	=56
1D	1F	1A	1f
1D	1F	1B-	1f
=57	=57	=57	=57
0C	0G	0c	0e
=58	=58	=58	=58
1r	1r	1r	1r
[1BB-	[1B-	1F	[1d
=59	=59	=59	=59
1BB-]	1B-]	1.B-	1d]
1E-i	1B-	.	1g
.	.	2A/	.
=60	=60	=60	=60
1E-i	1B-	2G/	1g
.	.	2E-i/	.
1D	1B-	1F	1f
=61	=61	=61	=61
0C	0c	[0G	0e-i
=62	=62	=62	=62
0GG	0B-	0G]	0d
=63	=63	=63	=63
1r	1r	1r	1r
[1D	[1A	[1F	[1f
=64	=64	=64	=64
1D]	1A]	1F]	1f]
1BB-	1B-	2D/	1g
.	.	[2G/	.
=65	=65	=65	=65
0AA	0c	2G/]	0a
.	.	4F#i/	.
.	.	4E/	.
.	.	1F#i	.
=66	=66	=66	=66
0GG	0B-	0G	0d
=67	=67	=67	=67
1.BB-	0B-	2F/	1.d
.	.	1f	.
2C/	.	[2e\	2e/
=68	=68	=68	=68
1D	1A	4e\]	1f
.	.	4d\	.
.	.	1d	.
1E-i	1G	.	[1g
.	.	2c\	.
=69	=69	=69	=69
0D	0A	0d	2g/]
.	.	.	4f#i/
.	.	.	4e/
.	.	.	1f#i
=70	=70	=70	=70
0E-i	[0G;	0B-	1.g
.	.	.	4f/
.	.	.	4e-i/
=71	=71	=71	=71
0C;	0G]	0c;	0e-i;
=72	=72	=72	=72
0BB-	0B-	0d	0f
=73	=73	=73	=73
1BB-	1B-	1d	1f
1BB-	1B-	1d	1g
=74	=74	=74	=74
1C	1A	1e	1.a
1D	1F	1f	.
.	.	.	2b-\
=75	=75	=75	=75
1C	0G	1e	1cc
1E-i	.	1c	4cc\
.	.	.	4b-\
.	.	.	4a/
.	.	.	4g/
=76	=76	=76	=76
0D	0A	0d	2f/
.	.	.	1g
.	.	.	2f#i/
=77	=77	=77	=77
0GGl	0Gl	0dl	0gl
!!LO:LB:i:g=z
=78||	=78||	=78||	=78||
!!section: Crucifixus
!!!OMD: Crucifixus
*>C	*>C	*>C	*>C
*M2/1	*M2/1	*M2/1	*M2/1
*met(C|)	*met(C|)	*met(C|)	*met(C|)
1BB-	0r	0r	0r
2BB-/	.	.	.
2AA/	.	.	.
=79	=79	=79	=79
2BB-/	0r	1B-	0r
2C/	.	.	.
2.D\	.	2B-\	.
.	.	2A/	.
4C/	.	.	.
=80	=80	=80	=80
2D\	0r	2B-\	0r
2E\	.	2c\	.
2F\	.	2.d\	.
[2G\	.	.	.
.	.	4c\	.
=81	=81	=81	=81
4G\]	0r	2d\	0r
4F\	.	.	.
4E-i\	.	2.e-i\	.
4D\	.	.	.
2C/	.	.	.
.	.	4d\	.
2D\	.	[2d\	.
=82	=82	=82	=82
1E-i	0r	2d\]	0r
.	.	2c\	.
2r	.	1d	.
2D\	.	.	.
=83	=83	=83	=83
2F\	0r	2r	0r
2F\	.	2A/	.
2F\	.	2c\	.
4E\	.	2c\	.
4D\	.	.	.
=84	=84	=84	=84
2.C/	0r	2c\	0r
.	.	4B-\	.
4D\	.	4A/	.
4E\	.	2.G/	.
4F\	.	.	.
[2G\	.	.	.
.	.	4A/	.
=85	=85	=85	=85
2G\]	0r	4B-\	0r
.	.	4c\	.
4F\	.	1d	.
4E\	.	.	.
1D	.	.	.
.	.	4c\	.
.	.	4B-\	.
=86	=86	=86	=86
2r	0r	1A	0r
2.D\	.	.	.
.	.	2r	.
4C/	.	.	.
4D\	.	[2A/	.
4E\	.	.	.
=87	=87	=87	=87
1.F	0r	4A/]	0r
.	.	4G/	.
.	.	4A/	.
.	.	4B-\	.
.	.	[1c	.
4E\	.	.	.
4D\	.	.	.
=88	=88	=88	=88
2.C/	0r	2c\]	0r
.	.	4B-\	.
4D\	.	4A/	.
4E\	.	2.G/	.
4F\	.	.	.
[2G\	.	.	.
.	.	4A/	.
=89	=89	=89	=89
2G\]	0r	4B-\	0r
.	.	4c\	.
4F\	.	1d	.
4E\	.	.	.
2F\	.	.	.
4E-i\	.	4c\	.
4D\	.	4B-\	.
=90	=90	=90	=90
4E-i\	0r	4c\	0r
4D\	.	4B-\	.
4C/	.	1B-	.
4BB-/	.	.	.
1C	.	.	.
.	.	2A/	.
=91	=91	=91	=91
1BB-	0r	0B-	0r
2r	.	.	.
2BB-/	.	.	.
=92	=92	=92	=92
2C/	0r	2r	0r
2D\	.	2F/	.
1E-i	.	2.G/	.
.	.	4A/	.
=93	=93	=93	=93
2D\	0r	2B-\	0r
2BB-/	.	2B-\	.
2C/	.	2A/	.
2D\	.	2F/	.
=94	=94	=94	=94
2E-i\	0r	2G/	0r
2F\	.	2A/	.
4G\	.	2B-\	.
4F\	.	.	.
4E-i\	.	[2c\	.
4D\	.	.	.
=95	=95	=95	=95
2C/	0r	4c\]	0r
.	.	4B-\	.
2.D\	.	4A/	.
.	.	4G/	.
.	.	2B-\	.
4BB-/	.	.	.
[2C/	.	[2A/	.
=96	=96	=96	=96
4C/]	0r	4A/]	0r
4BB-/	.	4G/	.
4AA/	.	1G	.
4GG/	.	.	.
1AA	.	.	.
.	.	2F#i/	.
=97	=97	=97	=97
0GGl	0r	0Gl	0r
!!LO:LB:i:g=z
=98||	=98||	=98||	=98||
!!section: Et resurrexit
!!!OMD: Et resurrexit
*>D	*>D	*>D	*>D
*M2/1	*M2/1	*M2/1	*M2/1
*met(C|)	*met(C|)	*met(C|)	*met(C|)
0r	1c	0r	1r
.	2c\	.	[1g
.	2c\	.	.
=99	=99	=99	=99
0r	1B-	0r	2g/]
.	.	.	2g/
.	1A	.	1f
=100	=100	=100	=100
0r	2r	0r	1e
.	2A/	.	.
.	2c\	.	2r
.	2c\	.	2e/
=101	=101	=101	=101
0r	2B-\	0r	2g/
.	2G/	.	2g/
.	2.A/	.	2f/
.	.	.	2d/
.	4B-\	.	.
=102	=102	=102	=102
0r	1.c	0r	2.e/
.	.	.	4f/
.	.	.	1g
.	4B-\	.	.
.	4A/	.	.
=103	=103	=103	=103
0r	1G	0r	2r
.	.	.	2g/
.	2r	.	2g/
.	2G/	.	[2b-\
=104	=104	=104	=104
0r	2G/	0r	4b-\]
.	.	.	4a/
.	2B-\	.	4g/
.	.	.	4f/
.	4B-\	.	4g/
.	4A/	.	4f/
.	4G/	.	4e/
.	4F/	.	4d/
=105	=105	=105	=105
0r	4G/	0r	4e/
.	4F/	.	4d/
.	4E/	.	1d
.	4D/	.	.
.	1E	.	.
.	.	.	2c#i/
=106	=106	=106	=106
0r	0D	0r	1d
.	.	.	2r
.	.	.	2f/
=107	=107	=107	=107
0r	2r	0r	2g/
.	2F/	.	2a/
.	2G/	.	2b-\
.	2A/	.	2cc\
=108	=108	=108	=108
0r	2B-\	0r	2g/
.	2c\	.	2a/
.	2d\	.	2b-\
.	[2e-i\	.	[2cc\
=109	=109	=109	=109
0r	4e-\]	0r	4cc\]
.	4d\	.	4b-\
.	4c\	.	1b-
.	4B-\	.	.
.	1c	.	.
.	.	.	2a/
=110	=110	=110	=110
0r	1B-	0r	0b-
.	2r	.	.
.	2e-i\	.	.
=111	=111	=111	=111
0r	2d\	0r	2r
.	2B-\	.	2b-\
.	2c\	.	2a/
.	2d\	.	2f/
=112	=112	=112	=112
0r	2G/	0r	2g/
.	2c\	.	2a/
.	2B-\	.	2d/
.	2G/	.	2g/
=113	=113	=113	=113
0r	2A/	0r	2f/
.	2B-\	.	2d/
.	2c\	.	2e/
.	2A/	.	2f/
=114	=114	=114	=114
0r	4B-\	0r	4g/
.	4A/	.	4f/
.	4B-\	.	4g/
.	4c\	.	4a/
.	2d\	.	2b-\
.	2B-\	.	2g/
=115	=115	=115	=115
0r	2c\	0r	2a/
.	2G/	.	2b-\
.	2A/	.	2.cc\
.	2B-\	.	.
.	.	.	4b-\
=116	=116	=116	=116
0r	4c\	0r	4a/
.	4B-\	.	4g/
.	4A/	.	1g
.	4G/	.	.
.	1A	.	.
.	.	.	2f#i/
=117	=117	=117	=117
0r	0Gl	0r	0gl
!!LO:LB:i:g=z
=118||	=118||	=118||	=118||
!!section: Et iterum
!!!OMD: Et iterum
*>E	*>E	*>E	*>E
*M2/1	*M2/1	*M2/1	*M2/1
*met(C|)	*met(C|)	*met(C|)	*met(C|)
1r	[0G	0r	1d
1GG	.	.	2d/
.	.	.	2d/
=119	=119	=119	=119
2GG/	0G]	1r	0g
2GG/	.	.	.
1C	.	1c	.
=120	=120	=120	=120
1r	[0F	2c\	2r
.	.	2c\	2a/
2r	.	1f	2a/
2D\	.	.	2a/
=121	=121	=121	=121
2D\	0F]	2r	1f
2D\	.	2d\	.
1BB-	.	2d\	2r
.	.	2d\	2f/
=122	=122	=122	=122
2r	[0G	1B-	2b-\
2BB-/	.	.	2b-\
2E-\	.	2B-\	2g/
2E-i\	.	2e-i\	2g/
=123	=123	=123	=123
2C/	0G]	2e-i\	2cc\
2C/	.	2c\	2cc\
2E-i\	.	2c\	2g/
2E-i\	.	2B-\	2b-\
=124	=124	=124	=124
2BB-/	0B-	1B-	4b-\
.	.	.	4a/
1E-i	.	.	4g/
.	.	.	4f/
.	.	1G	2g/
2D\	.	.	4g/
.	.	.	4f/
=125	=125	=125	=125
2C/	0c	2r	4e/
.	.	.	4d/
2BB-/	.	1G	4f/
.	.	.	4g/
1AA	.	.	2a/
.	.	2F#i/	2a/
=126	=126	=126	=126
2GG/	1B-	2.G/	1d
1G	.	.	.
.	.	4A/	.
.	1r	4B-\	1r
.	.	4c\	.
2F\	.	2d\	.
=127	=127	=127	=127
2E-i\	0r	2c\	0r
2D\	.	1B-	.
1C	.	.	.
.	.	2A/	.
=128	=128	=128	=128
0BB-	0r	1B-	2r
.	.	.	2f/
.	.	2r	2f/
.	.	2f\	2f/
=129	=129	=129	=129
0r	0r	2f\	2.d/
.	.	2f\	.
.	.	.	4e/
.	.	2.d\	4f/
.	.	.	4g/
.	.	.	2a/
.	.	4c\	.
=130	=130	=130	=130
0r	0r	2d\	2f/
.	.	1e-i	1g
.	.	[2d\	[2f/
=131	=131	=131	=131
0r	0A	2d\]	2f/]
.	.	4c\	4e/
.	.	4B-\	4d/
.	.	1c	1e
=132	=132	=132	=132
2.BB-/	0B-	0d	1d
4BB-/	.	.	.
2D\	.	.	2.f/
2D\	.	.	.
.	.	.	4f/
=133	=133	=133	=133
1AA	0c	1r	2a/
.	.	.	2a/
2C/	.	1A	1e
2C/	.	.	.
=134	=134	=134	=134
2E-i\	0B-	2G/	2g/
2E-i\	.	2B-\	2g/
1BB-	.	2B-\	2b-\
.	.	[2F/	2b-\
=135	=135	=135	=135
1D	0A	2F/]	1f
.	.	1A	.
2AA/	.	.	1a
2AA/	.	2E/	.
=136	=136	=136	=136
2C/	2.G/	2E/	2e/
2C/	.	2G/	2e/
.	4A/	.	.
1GG	2B-\	2G/	2g/
.	2G/	[2D/	2g/
=137	=137	=137	=137
1D	2A/	4D/]	1d
.	.	4E/	.
.	1B-	2F/	.
1E-i	.	2G/	2.g/
.	2G/	[2g\	.
.	.	.	4f/
=138	=138	=138	=138
2C/	2A/	2g\]	2e/
2D\	2B-\	2f\	2d/
2E\	2.c\	2e\	2g/
[2F\	.	[2c\	[2a/
.	4B-\	.	.
=139	=139	=139	=139
2F\]	4A/	2c\]	2a/]
.	4G/	.	.
2BB-/	2B-\	2d\	1g
2C/	1A	2e-i\	.
2D\	.	2d\	2f#i/
=140	=140	=140	=140
1GG	0G	1B-	0g
2r	.	2r	.
2GG/	.	[2B-\	.
=141	=141	=141	=141
4GG/	0r	2B-\]	0r
4AA/	.	.	.
4BB-/	.	2B-\	.
4C/	.	.	.
2D\	.	2B-\	.
2D\	.	2B-\	.
=142	=142	=142	=142
2E-i\	0r	2B-\	0r
2F\	.	2A/	.
2G\	.	2G/	.
[2A\	.	2F/	.
=143	=143	=143	=143
4A\]	0r	1G	0r
4G\	.	.	.
1G	.	.	.
.	.	1A	.
2F#i\	.	.	.
=144	=144	=144	=144
0G	1B-	1G	2r
.	.	.	2b-\
.	2B-\	1r	2.b-\
.	2B-\	.	.
.	.	.	4a/
=145	=145	=145	=145
0r	2.B-\	0r	2g/
.	.	.	2f/
.	4A/	.	.
.	2G/	.	2g/
.	2F/	.	[2a/
=146	=146	=146	=146
0r	1G	0r	4a/]
.	.	.	4g/
.	.	.	1g
.	1A	.	.
.	.	.	2f#i/
=147	=147	=147	=147
2r	1G	2r	1g
2G\	.	2B-\	.
2G\	1r	2B-\	1r
2E\	.	2c\	.
=148	=148	=148	=148
2.F\	0r	2.d\	0r
4E\	.	4c\	.
2F\	.	2d\	.
[2G\	.	[2e-i\	.
=149	=149	=149	=149
4G\]	0r	4e-\]	0r
4F\	.	4d\	.
4E-i\	.	1d	.
4D\	.	.	.
2.E-i\	.	.	.
.	.	2c\	.
8D/L	.	.	.
8C/J	.	.	.
=150	=150	=150	=150
1BB-	1r	1d	2r
.	.	.	2b-\
1r	1B-	1r	2.b-\
.	.	.	4cc\
=151	=151	=151	=151
0r	2B-\	0r	2dd\
.	2A/	.	2cc\
.	2B-\	.	2dd\
.	2c\	.	[2ee-i\
=152	=152	=152	=152
0r	1d	0r	4ee-\]
.	.	.	4dd\
.	.	.	1dd
.	1e-i	.	.
.	.	.	2cc\
=153	=153	=153	=153
1.G	[0d	1.B-	1dd
.	.	.	1r
2F\	.	2A/	.
=154	=154	=154	=154
2G\	0d]	2B-\	0r
2F\	.	2A/	.
1D	.	1A	.
=155	=155	=155	=155
1.E-i	0r	2G/	1.g
.	.	2B-\	.
.	.	2c\	.
2D\	.	2d\	2f/
=156	=156	=156	=156
2E-i\	0r	2G/	2g/
2D\	.	2A/	2f/
2.BB-/	.	1B-	[1d
4C/	.	.	.
=157	=157	=157	=157
1D	0r	1A	1d]
1GG	.	1G	2r
.	.	.	[2g/
=158	=158	=158	=158
1.G	[0d	2r	2g/]
.	.	1B-	2g/
.	.	.	1g
2G\	.	2B-\	.
=159	=159	=159	=159
1G	0d]	1B-	1g
1G	.	1B-	1d
=160	=160	=160	=160
1D	0d	0A	0f
2r	.	.	.
2D\	.	.	.
=161	=161	=161	=161
2F\	0c	2r	2r
2F\	.	2c\	2a/
1C	.	2e\	2cc\
.	.	2e\	2cc\
=162	=162	=162	=162
1G	1B-	[0d	1g
2D\	1A	.	[1dd
2D\	.	.	.
=163	=163	=163	=163
1.G	0B-	0d]	2dd\]
.	.	.	2cc\
.	.	.	2b-\
2F\	.	.	2a/
=164	=164	=164	=164
2E\	0c	2r	2g/
2D\	.	2F/	2f/
1C	.	2G/	1e
.	.	2A/	.
=165	=165	=165	=165
1BB-	1d	2B-\	1d
.	.	2B-\	.
1C	1e-i	[1G	2c/
.	.	.	[2cc\
=166	=166	=166	=166
0G	1d	2G/]	2cc\]
.	.	2.B-\	2b-\
.	1B-	.	[1b-
.	.	4c\	.
.	.	4d\	.
.	.	4e\	.
=167	=167	=167	=167
0F	0c	1f	2b-\]
.	.	.	4a/
.	.	.	4g/
.	.	2f\	1a
.	.	2f\	.
=168	=168	=168	=168
*M3/1	*M3/1	*M3/1	*M3/1
*met(3)	*met(3)	*met(3)	*met(3)
0BB-	0B-	[0.d	0b-
1r	1r	.	1r
=169	=169	=169	=169
0.r	1B-	0d]	1r
.	1B-	.	1f
.	1B-	1r	1d
=170	=170	=170	=170
0.r	0A	0.r	1e
.	.	.	1f
.	1B-	.	1g
=171	=171	=171	=171
0.r	1.c	0.r	2g/
.	.	.	2f/
.	.	.	2e/
.	2B-\	.	2d/
.	1A	.	2e/
.	.	.	2f/
=172	=172	=172	=172
0.r	1G	0.r	1g
.	0A	.	1g
.	.	.	1f#i
=173	=173	=173	=173
1E-i	0G	1r	0.g
1E-i	.	1B-	.
1E-i	1r	1G	.
=174	=174	=174	=174
0D	0.r	1A	0.r
.	.	1B-	.
1E-i	.	1c	.
=175	=175	=175	=175
1.F	0.r	2c\	0.r
.	.	2B-\	.
.	.	2A/	.
2E-i\	.	2G/	.
1D	.	2A/	.
.	.	2B-\	.
=176	=176	=176	=176
1C	0.r	1c	0.r
0D	.	1c	.
.	.	1Bni	.
=177	=177	=177	=177
0.C	0.r	0c	1e
.	.	.	1e
.	.	1r	1e
=178	=178	=178	=178
0.r	1B-	1F	1d
.	1B-	1D	1f
.	1B-	1E	1g
=179	=179	=179	=179
1D	0A	0F	1.a
1D	.	.	.
.	.	.	2g/
1D	1B-	1F	1f
=180	=180	=180	=180
0C	1.c	0G	0e
.	2B-\	.	.
1D	1A	1F	1f
=181	=181	=181	=181
1.E-i	0G	0B-	1.g
2D\	.	.	2f/
1C	1A	1c	1e
=182	=182	=182	=182
0BB-	1.B-	1d	0d
.	.	1f	.
.	2A/	.	.
1C	1G	1e	1e
=183	=183	=183	=183
1D	0F	1d	1f
1F	.	1c	1.a
1E-i	1B-	[1e-i	.
.	.	.	2g/
=184	=184	=184	=184
1C	1c	1e-]	0g
0D	0A	0d	.
.	.	.	1f#i
=185	=185	=185	=185
0.GG	0G	0.B-	0g
.	1r	.	1r
=186	=186	=186	=186
1r	0d	1r	1r
0G	.	1r	0b-
.	1B-	[1e-	.
=187	=187	=187	=187
1E-i	1c	1e-]	1g
1F	1A	1c	1a
1D	1B-	1d	1f
=188	=188	=188	=188
1E-i	1G	1B-	1g
1C	0c	1c	1e
[1F	.	1A	[1a
=189	=189	=189	=189
1F]	1A	0d	1a]
1D	1B-	.	1f
1E-i	1G	1B-	1g
=190	=190	=190	=190
1C	1A	1c	1e
1D	1F	1A	1f
1BB-	[1B-	1B-	1d
=191	=191	=191	=191
0E-i	1B-]	1G	0g
.	1G	0c	.
1C	1A	.	1e
=192	=192	=192	=192
1D	1F	1A	1f
1BB-	1G	1B-	1d
1C	1E	1G	1e
=193	=193	=193	=193
1AA	0A	1A	1c
0D	.	1F	0f
.	1F	[1B-	.
=194	=194	=194	=194
1BB-	1G	1B-]	1d
1C	1E	1G	1e
1AA	1F	1A	1c
=195	=195	=195	=195
1BB-	1D	1F	1d
1GG	0d	1G	1B-
[1G	.	1r	[1b-
=196	=196	=196	=196
1G]	1B-	0e-	1b-]
1E-i	1c	.	1g
1F	1A	1c	1a
=197	=197	=197	=197
1D	1B-	1d	1f
1E-i	1G	1B-	1g
1C	[1c	1c	1e
=198	=198	=198	=198
0F	1c]	1A	0a
.	1A	0d	.
1D	1B-	.	1f
=199	=199	=199	=199
1E-i	1G	1B-	1g
1C	1A	1c	1e
1D	1F	1A	1f
=200	=200	=200	=200
1BB-	0B-	1B-	1d
0E-i	.	1G	0g
.	1G	[1c	.
=201	=201	=201	=201
1C	1A	1c]	1e
1D	1F	1A	1f
1BB-	[1G	1B-	1d
=202	=202	=202	=202
1E-i	1G]	1c	1.g
0D	0A	0d	.
.	.	.	2f#i/
.	.	.	2f#i/
.	.	.	2e/
=203	=203	=203	=203
0.GGl	0.Gl	0.dl	0.gl
==	==	==	==
*-	*-	*-	*-
!!!RDF**kern: l=long note in original notation
!!!RDF**kern: i=editorial accidental
!!!SMS: Grapheus 1539
!!!SMS: Smijers, No. 19, afl. 43 (after G1539)
!!!SMS1: Ed. Blume. Josquin des Pres, Missa Da pacem, in: Cw, 20 
!!!SMS2: (Wolfenbuttel 1932) (after G1539).
!!!ENC:	Victoria Chang 2011/04/18
!!!END:	2011/01/01/
!!!EED:	Jesse Rodin
!!!EEV: 2012/04/24/
!!attribution-level@Jos: 4 (questionable)
!!!ONB:	Translated from MusicXML and edited on 2011/12/16/ by Craig Sapp
!!muse2ps: T^@{OPR}^u^@{ONM}{. }@{OTL}^C^Bauldeweyn/Josquin?/Mouton?\n@{SCT}^i2I100v85,90,85,150c80Q4
